X:438
T: DER GROSSE KAISER NAPOLEON
N: E0358A
O: Europa, Mitteleuropa, Deutschland, Rheinland
R: historisches Lied, Krieg gegen Napoleon (1815)
M: 4/4
L: 1/8
K: G
D2 | G2B2A2d2 | B3AG2
GA | B2B2c2ce | d3cB2
d2 | e2d2c4 | B4z2
Bc | d2B2e3d | c2cBA2
AB | c2A2d3c | B2BAG2
G2 | A2e2d2c2 | B4z2

